flaticon/security/hose.svg

<svg xmlns="http://www.w3.org/2000/svg" width="32" height="32" viewBox="0 0 24 24">
    <path d="M6.710938.203125C5.925781.203125 5.289062.84375 5.289062 1.628906L5.289062 16.269531C5.289062 17.054688 5.925781 17.695312 6.710938 17.695312 7.496094 17.695312 8.136719 17.054688 8.136719 16.269531L8.136719 1.628906C8.136719.84375 7.496094.203125 6.710938.203125zM7.320312 16.269531C7.320312 16.609375 7.046875 16.882812 6.710938 16.882812 6.375 16.882812 6.101562 16.609375 6.101562 16.269531L6.101562 1.628906C6.101562 1.289062 6.375 1.015625 6.710938 1.015625 7.046875 1.015625 7.320312 1.289062 7.320312 1.628906zM9.964844.203125C9.179688.203125 8.542969.84375 8.542969 1.628906L8.542969 16.269531C8.542969 17.054688 9.179688 17.695312 9.964844 17.695312 10.75 17.695312 11.390625 17.054688 11.390625 16.269531L11.390625 1.628906C11.390625.84375 10.75.203125 9.964844.203125zM10.578125 16.269531C10.578125 16.609375 10.300781 16.882812 9.964844 16.882812 9.628906 16.882812 9.355469 16.609375 9.355469 16.269531L9.355469 1.628906C9.355469 1.289062 9.628906 1.015625 9.964844 1.015625 10.300781 1.015625 10.578125 1.289062 10.578125 1.628906zM20.746094 5.898438C19.089844 5.898438 17.722656 7.144531 17.519531 8.746094L16.679688 8.746094 16.679688 3.457031 15.863281 3.457031 15.863281 7.117188 14.644531 7.117188 14.644531 1.628906C14.644531.84375 14.003906.203125 13.21875.203125 12.433594.203125 11.796875.84375 11.796875 1.628906L11.796875 16.269531C11.796875 17.054688 12.433594 17.695312 13.21875 17.695312 14.003906 17.695312 14.644531 17.054688 14.644531 16.269531L14.644531 10.78125 15.863281 10.78125 15.863281 14.441406 16.679688 14.441406 16.679688 9.558594 17.519531 9.558594C17.722656 11.160156 19.089844 12.40625 20.746094 12.40625 22.539062 12.40625 24 10.945312 24 9.152344 24 7.359375 22.539062 5.898438 20.746094 5.898438zM13.832031 16.269531C13.832031 16.609375 13.558594 16.882812 13.21875 16.882812 12.882812 16.882812 12.609375 16.609375 12.609375 16.269531L12.609375 1.628906C12.609375 1.289062 12.882812 1.015625 13.21875 1.015625 13.558594 1.015625 13.832031 1.289062 13.832031 1.628906zM14.644531 9.964844L14.644531 7.933594 15.863281 7.933594 15.863281 9.964844zM23.148438 8.746094L21.152344 8.746094 21.152344 6.75C22.171875 6.921875 22.976562 7.726562 23.148438 8.746094zM20.339844 6.75L20.339844 8.746094 18.339844 8.746094C18.515625 7.726562 19.320312 6.921875 20.339844 6.75zM18.339844 9.558594L20.339844 9.558594 20.339844 11.554688C19.320312 11.382812 18.515625 10.578125 18.339844 9.558594zM21.152344 11.554688L21.152344 9.558594 23.148438 9.558594C22.976562 10.578125 22.171875 11.382812 21.152344 11.554688zM4.882812 17.199219L4.882812 1.628906C4.882812.84375 4.242188.203125 3.457031.203125 2.671875.203125 2.035156.84375 2.035156 1.628906L2.035156 7.117188.8125 7.117188.8125 3.457031 0 3.457031 0 14.441406.8125 14.441406.8125 10.78125 2.035156 10.78125 2.035156 17.199219C1.785156 17.421875 1.628906 17.742188 1.628906 18.101562 1.628906 18.464844 1.789062 18.785156 2.039062 19.011719L2.386719 22.820312C2.4375 23.375 2.898438 23.796875 3.457031 23.796875 4.015625 23.796875 4.476562 23.375 4.527344 22.820312L4.875 19.011719C5.125 18.785156 5.289062 18.464844 5.289062 18.101562 5.289062 17.742188 5.128906 17.421875 4.882812 17.199219zM2.441406 18.101562C2.441406 17.945312 2.53125 17.816406 2.660156 17.746094 2.679688 17.738281 2.699219 17.726562 2.71875 17.722656 2.761719 17.707031 2.800781 17.695312 2.847656 17.695312L4.066406 17.695312C4.113281 17.695312 4.15625 17.707031 4.195312 17.71875 4.214844 17.726562 4.234375 17.734375 4.257812 17.746094 4.382812 17.816406 4.472656 17.945312 4.472656 18.101562 4.472656 18.324219 4.292969 18.507812 4.066406 18.507812L2.847656 18.507812C2.621094 18.507812 2.441406 18.324219 2.441406 18.101562zM.8125 9.964844L.8125 7.933594 2.035156 7.933594 2.035156 9.964844zM2.847656 10.371094L2.847656 1.628906C2.847656 1.289062 3.121094 1.015625 3.457031 1.015625 3.792969 1.015625 4.066406 1.289062 4.066406 1.628906L4.066406 16.882812 2.847656 16.882812zM3.71875 22.746094C3.707031 22.882812 3.59375 22.984375 3.457031 22.984375 3.320312 22.984375 3.210938 22.882812 3.199219 22.746094L2.886719 19.320312 4.03125 19.320312zM3.71875 22.746094"/>
</svg>

<svg xmlns="http://www.w3.org/2000/svg" width="32" height="32" viewBox="0 0 24 24">
    <path d="M6.71.203c-.784 0-1.42.64-1.42 1.426v14.64c0 .786.636 1.426 1.42 1.426.786 0 1.427-.64 1.427-1.425V1.629c0-.785-.64-1.426-1.426-1.426zm.61 16.067c0 .34-.273.613-.61.613a.611.611 0 0 1-.608-.613V1.629c0-.34.273-.613.609-.613.336 0 .61.273.61.613zm0 0M9.965.203c-.785 0-1.422.64-1.422 1.426v14.64c0 .786.637 1.426 1.422 1.426.785 0 1.426-.64 1.426-1.425V1.629c0-.785-.641-1.426-1.426-1.426zm.613 16.067a.611.611 0 1 1-1.223 0V1.629a.611.611 0 1 1 1.223 0zm0 0M20.746 5.898a3.26 3.26 0 0 0-3.226 2.848h-.84V3.457h-.817v3.66h-1.218V1.63c0-.785-.641-1.426-1.426-1.426-.785 0-1.422.64-1.422 1.426v14.64c0 .786.637 1.426 1.422 1.426.785 0 1.426-.64 1.426-1.425V10.78h1.218v3.66h.817V9.56h.84a3.26 3.26 0 0 0 3.226 2.847A3.26 3.26 0 0 0 24 9.152a3.26 3.26 0 0 0-3.254-3.254zM13.832 16.27a.612.612 0 1 1-1.223 0V1.629a.611.611 0 1 1 1.223 0zm.813-6.305V7.934h1.218v2.03zm8.503-1.219h-1.996V6.75a2.44 2.44 0 0 1 1.996 1.996zM20.34 6.75v1.996h-2a2.45 2.45 0 0 1 2-1.996zm-2 2.809h2v1.996a2.45 2.45 0 0 1-2-1.996zm2.812 1.996V9.559h1.996a2.44 2.44 0 0 1-1.996 1.996zm0 0M4.883 17.2V1.628c0-.785-.64-1.426-1.426-1.426-.785 0-1.422.64-1.422 1.426v5.488H.812v-3.66H0v10.984h.813v-3.66h1.222V17.2c-.25.223-.406.543-.406.903 0 .363.16.683.41.91l.348 3.808c.05.555.511.977 1.07.977s1.02-.422 1.07-.977l.348-3.808c.25-.227.414-.547.414-.91 0-.36-.16-.68-.406-.903zm-2.442.902c0-.157.09-.286.22-.356.019-.008.038-.02.058-.023a.363.363 0 0 1 .129-.028h1.218a.445.445 0 0 1 .192.051c.125.07.215.2.215.356 0 .222-.18.406-.407.406H2.848a.406.406 0 0 1-.407-.406zM.813 9.965V7.934h1.222v2.03zm2.035.406V1.63c0-.34.273-.613.609-.613.336 0 .61.273.61.613v15.254h-1.22zm.87 12.375a.26.26 0 0 1-.261.238.257.257 0 0 1-.258-.238l-.312-3.426H4.03zm0 0"/>
</svg>
